X: 1812
T: Johnny Cope
M:2/4
L:1/16
B:O'Neill's 1812
N:"Irish Version" "collected by J. O'Neill"
Z:"Transcribed by Bob Safranek, rjs@gsp.org"
K:A
   G | E2A2 ABcd | e2A2  B2AG | E2G2  GABc | d2G2 B2AG |
       E2A2 AGAB | cBcd  e2dc | B2=g2 edcB | c2A2 A3  :|
|: d | e2a2 e2a2 | e2a2  gfed | B2=g2 B2g2 | B2g2 gfed |
       e2a2 a2f2 | =g2f2 e2dc | B2=g2 edcB | c2A2 A3  :|


